build/images/common/2.svg

<svg width="72" height="71" viewBox="0 0 72 71" fill="none" xmlns="http://www.w3.org/2000/svg">
<path fill-rule="evenodd" clip-rule="evenodd" d="M26.3133 21.9657C26.7133 23.8657 27.6133 25.3657 27.8133 27.7657C28.1133 28.0657 28.8133 27.4657 29.2133 27.7657C29.2133 28.5657 28.2133 28.2657 28.0133 28.9657C28.3133 29.8657 28.7133 30.9657 28.9133 32.5657C29.2133 34.4657 29.6133 36.0657 28.9133 36.9657C28.5133 36.9657 28.2133 36.6657 28.0133 36.4657C28.1133 34.1657 27.1133 31.9657 26.8133 29.5657C25.3133 29.6657 24.9133 30.7657 23.4133 30.8657C23.2133 32.9657 22.3133 35.3657 22.9133 37.4657C22.7133 37.8657 22.4133 38.1657 22.0133 38.2657C21.2133 37.7657 21.3133 36.4657 21.4133 35.6657C21.6133 33.9657 22.2133 32.1657 22.4133 30.6657C22.5133 30.2657 22.2133 30.3657 22.3133 29.9657C23.7133 27.5657 24.1133 24.1657 25.6133 21.8657C25.9133 21.9657 26.1133 21.9657 26.3133 21.9657ZM24.1133 29.0657C24.8133 29.1657 25.7133 28.6657 26.4133 28.3657C26.3133 27.0657 26.1133 25.7657 25.4133 25.0657C25.1133 26.5657 24.3133 27.6657 24.1133 29.0657Z" fill="#232178"/>
<path fill-rule="evenodd" clip-rule="evenodd" d="M38.6133 25.7656C38.7133 27.9656 37.0133 28.3656 35.3133 28.7656C36.2133 29.6656 37.4133 30.4656 38.7133 31.0656C38.2133 33.3656 36.0133 34.4656 33.3133 34.3656C32.8133 34.3656 33.0133 35.0656 32.6133 35.1656C32.0133 34.7656 31.1133 34.6656 30.9133 33.8656C31.0133 33.4656 31.7133 33.6656 31.8133 33.2656C31.4133 30.2656 31.7133 27.2656 32.0133 24.2656C31.5133 23.8656 30.5133 23.7656 31.0133 22.7656C31.5133 22.3656 32.4133 22.8656 32.9133 22.2656C34.4133 23.8656 36.8133 24.5656 38.6133 25.7656ZM32.9133 28.1656C34.4133 27.7656 35.9133 27.4656 37.1133 26.7656C36.1133 25.7656 34.7133 25.2656 33.3133 24.6656C33.0133 25.7656 32.8133 26.7656 32.9133 28.1656ZM33.1133 33.3656C34.5133 32.9656 36.3133 32.9656 36.7133 31.6656C35.4133 30.8656 34.4133 29.7656 33.0133 28.9656C33.1133 30.4656 32.8133 32.1656 33.1133 33.3656Z" fill="#232178"/>
<path fill-rule="evenodd" clip-rule="evenodd" d="M48.8133 25.5657C47.6133 25.9657 47.2133 24.8657 46.2133 24.8657C43.1133 24.8657 42.2133 31.7657 44.6133 33.4657C45.7133 34.2657 47.3133 33.5657 48.1133 32.8657C48.3133 32.6657 48.5133 32.1657 48.9133 32.2657C49.7133 32.4657 48.7133 32.9657 48.6133 33.2657C47.7133 34.4657 46.8133 35.3657 44.9133 35.1657C40.1133 34.4657 41.4133 22.3657 47.0133 23.4657C47.7133 23.6657 49.1133 24.5657 48.8133 25.5657Z" fill="#232178"/>
<path fill-rule="evenodd" clip-rule="evenodd" d="M48.2133 57.8656C47.7133 57.7656 47.7133 58.0656 47.3133 58.0656C44.7133 59.7656 41.6133 61.0656 38.9133 62.5656C37.6133 64.4656 35.7133 62.3656 36.2133 60.2656C36.7133 59.7656 37.6133 60.0656 37.8133 60.5656C38.0133 60.2656 38.0133 59.8656 38.1133 59.6656C40.8133 57.6656 44.4133 55.9656 47.2133 54.4656C48.5133 55.1656 48.9133 56.4656 48.2133 57.8656Z" fill="#232178"/>
<path fill-rule="evenodd" clip-rule="evenodd" d="M66.9133 58.5657C64.1133 58.4657 60.2133 59.4657 57.8133 57.9657C57.8133 55.4657 57.3133 53.4657 57.0133 51.2657C56.0133 51.2657 55.6133 50.7657 55.3133 50.0657C50.5133 50.3657 45.9133 50.4657 41.3133 50.3657C33.1133 50.3657 24.8133 51.6657 16.2133 50.4657C15.7133 52.6657 15.9133 55.4657 15.0133 57.1657C12.2133 57.9657 8.1133 58.4657 5.0133 57.6657C4.6133 54.9657 4.21329 52.3657 4.31329 50.0657C4.41329 48.8657 3.9133 47.5657 4.0133 46.3657C4.1133 43.2657 4.31328 39.6657 4.61328 36.5657C4.91328 33.3657 4.51329 29.1657 4.81329 25.9657C4.91329 24.6657 5.3133 23.5657 4.5133 22.6657C5.5133 21.5657 5.41329 18.6657 4.81329 17.1657C5.91329 15.0657 5.51328 11.3657 6.71328 9.26569C7.81328 8.96569 7.61328 10.0657 8.11328 10.4657C9.11328 10.0657 7.91329 9.26569 8.31329 8.56569C14.3133 7.86569 19.9133 8.16569 26.2133 7.86569C30.1133 7.66569 34.3133 7.46569 38.6133 7.36569C39.3133 7.36569 40.0133 7.56569 40.6133 7.46569C40.9133 7.46569 41.3133 7.16569 41.6133 7.16569C43.0133 6.96569 44.8133 6.96569 46.3133 7.06569C49.9133 7.16569 54.0133 7.56569 57.6133 7.06569C59.8133 8.26569 62.9133 6.46569 65.6133 7.66569C67.2133 8.36569 67.9133 13.1657 67.8133 15.5657C67.8133 15.8657 67.6133 16.2657 67.6133 16.4657C67.6133 16.8657 67.9133 17.8657 67.9133 18.1657C67.9133 19.3657 67.7133 21.0657 67.8133 22.5657C67.9133 26.2657 68.0133 30.6657 67.9133 33.8657C67.7133 39.0657 67.6133 44.1657 67.6133 49.0657C67.5133 52.5657 67.7133 56.1657 66.9133 58.5657ZM50.2133 10.0657C49.0133 11.7657 46.4133 12.7657 45.8133 14.7657C47.0133 14.7657 48.5133 14.9657 48.6133 13.9657C48.0133 14.0657 47.8133 14.3657 47.3133 14.5657C47.7133 13.0657 49.4133 11.9657 50.4133 10.8657C51.2133 10.4657 52.0133 9.86569 52.6133 9.26569C51.8133 8.86569 51.2133 9.96569 50.2133 10.0657ZM64.2133 9.56569C64.4133 9.46569 64.9133 9.76569 64.8133 9.36569C64.6133 9.36569 64.4133 9.36569 64.2133 9.36569C64.2133 9.36569 64.2133 9.46569 64.2133 9.56569ZM37.8133 9.86569C36.1133 11.6657 33.7133 12.7657 32.2133 14.7657C35.0133 13.4657 37.0133 11.2657 39.3133 9.46569C38.8133 9.56569 38.4133 9.86569 37.8133 9.86569ZM11.5133 9.86569C12.0133 9.96569 11.9133 10.5657 12.1133 10.8657C12.7133 10.6657 13.4133 10.5657 13.4133 9.66569C12.7133 9.66569 12.1133 9.66569 11.5133 9.86569ZM13.6133 11.9657C14.3133 12.1657 15.1133 11.5657 15.5133 11.0657C16.1133 10.6657 17.0133 10.6657 17.2133 9.86569C15.5133 10.0657 14.4133 10.9657 13.6133 11.9657ZM30.7133 10.3657C30.7133 10.2657 30.7133 10.0657 30.5133 10.1657C29.2133 10.7657 28.5133 11.8657 27.5133 12.7657C28.8133 12.1657 29.6133 11.1657 30.7133 10.3657ZM21.9133 14.7657C23.0133 14.0657 24.0133 13.3657 24.9133 12.5657C25.7133 11.8657 26.7133 11.0657 26.5133 10.5657C24.8133 11.8657 23.1133 13.1657 21.9133 14.7657ZM36.3133 14.8657C37.3133 15.0657 37.3133 14.2657 37.6133 13.8657C39.2133 13.2657 40.1133 11.9657 41.2133 10.8657C39.1133 11.7657 37.7133 13.3657 36.3133 14.8657ZM56.2133 13.8657C57.4133 12.9657 58.5133 11.9657 59.5133 10.8657C57.8133 11.3657 57.1133 12.7657 56.2133 13.8657ZM56.6133 15.7657C58.5133 14.6657 59.4133 12.6657 61.3133 11.5657C61.3133 11.4657 61.3133 11.2657 61.1133 11.3657C59.4133 12.5657 57.4133 14.0657 56.6133 15.7657ZM52.6133 11.9657C51.7133 12.6657 50.5133 13.5657 49.9133 14.7657C50.1133 14.7657 51.0133 15.0657 51.4133 14.7657C50.5133 13.5657 52.4133 12.5657 53.0133 11.7657C52.7133 11.4657 52.8133 11.8657 52.6133 11.9657ZM53.4133 14.7657C54.0133 14.3657 55.3133 13.4657 54.9133 12.8657C54.5133 13.6657 53.7133 14.0657 53.4133 14.7657ZM41.0133 14.6657C41.7133 14.9657 42.3133 14.0657 41.7133 13.8657C41.6133 14.2657 41.0133 14.1657 41.0133 14.6657ZM38.9133 14.8657C39.3133 14.8657 39.8133 14.9657 40.1133 14.7657C40.1133 13.6657 38.9133 13.9657 38.9133 14.8657ZM55.3133 15.0657C55.5133 14.6657 56.1133 14.6657 56.1133 14.0657C55.7133 14.0657 55.1133 14.6657 55.3133 15.0657ZM27.4133 15.0657C27.6133 15.2657 27.9133 15.1657 28.1133 14.9657C28.0133 14.7657 27.4133 14.6657 27.4133 15.0657ZM66.3133 15.9657C66.6133 15.6657 66.2133 15.2657 66.3133 14.7657C66.2133 14.7657 66.1133 14.7657 66.0133 14.7657C65.7133 15.0657 65.8133 15.9657 66.3133 15.9657ZM57.4133 17.2657C58.2133 16.8657 58.6133 16.1657 59.1133 15.5657C58.3133 15.7657 57.9133 16.4657 57.4133 17.2657ZM16.2133 16.0657C16.7133 24.4657 15.2133 33.1657 15.9133 41.4657C27.6133 41.4657 42.1133 41.7657 53.9133 40.8657C54.4133 40.1657 55.5133 39.9657 55.8133 38.9657C53.7133 39.0657 55.2133 37.3657 55.8133 36.8657C55.9133 33.4657 56.0133 29.6657 55.8133 26.3657C55.8133 25.5657 56.0133 24.7657 56.0133 24.0657C56.0133 23.0657 55.3133 22.0657 56.0133 21.3657C55.8133 21.0657 55.3133 21.0657 55.2133 20.5657C56.2133 19.9657 55.8133 18.1657 55.2133 17.2657C49.5133 16.1657 43.4133 16.1657 37.1133 16.4657C32.8133 16.6657 28.3133 16.5657 24.2133 16.4657C21.9133 16.3657 19.1133 15.8657 17.6133 16.5657C17.4133 15.6657 16.8133 15.6657 16.2133 16.0657ZM66.0133 17.8657C66.1133 17.5657 65.9133 17.1657 66.0133 16.5657C65.3133 16.1657 65.0133 17.8657 66.0133 17.8657ZM59.1133 18.9657C60.0133 18.6657 60.6133 18.0657 61.2133 17.4657C61.5133 17.3657 62.0133 17.3657 61.9133 16.8657C60.7133 17.3657 59.9133 18.1657 59.1133 18.9657ZM66.2133 20.7657C66.1133 20.0657 66.4133 19.3657 66.0133 19.1657C65.9133 19.5657 65.8133 20.4657 66.2133 20.7657ZM14.2133 21.6657C14.7133 21.6657 14.6133 20.5657 14.4133 20.2657C14.0133 20.6657 14.4133 21.1657 14.2133 21.6657ZM7.71328 24.6657C8.81328 23.7657 9.91328 22.8657 10.6133 21.6657C9.11328 21.6657 8.61328 23.6657 7.71328 24.6657ZM62.2133 27.3657C61.6133 28.2657 60.4133 28.6657 59.8133 29.5657C61.7133 28.4657 63.3133 27.2657 65.1133 26.0657C63.7133 25.6657 63.4133 27.1657 62.2133 27.3657ZM6.5133 28.5657C7.1133 28.7657 7.21328 27.6657 6.61328 27.7657C6.51328 27.8657 6.5133 28.1657 6.5133 28.5657ZM13.7133 28.1657C13.2133 28.6657 12.2133 28.7657 12.1133 29.6657C12.5133 29.3657 13.1133 28.9657 13.8133 29.3657C13.9133 29.1657 14.2133 28.1657 13.7133 28.1657ZM59.2133 30.2657C59.3133 30.0657 59.6133 30.0657 59.7133 29.7657C59.3133 29.6657 58.9133 30.0657 59.2133 30.2657ZM57.8133 31.0657C58.1133 31.2657 58.6133 30.9657 58.6133 30.5657C58.3133 30.6657 57.9133 30.7657 57.8133 31.0657ZM11.8133 32.8657C12.6133 32.8657 12.7133 32.0657 13.5133 32.0657C13.5133 31.7657 13.6133 31.2657 13.3133 31.2657C13.0133 31.8657 12.0133 31.9657 11.8133 32.8657ZM63.6133 33.3657C64.3133 33.2657 65.9133 32.4657 64.9133 31.8657C64.5133 32.4657 63.9133 32.7657 63.6133 33.3657ZM66.5133 33.6657C66.4133 33.2657 66.8133 32.3657 66.3133 32.2657C66.3133 32.7657 66.2133 33.3657 66.5133 33.6657ZM10.0133 34.5657C10.6133 34.4657 10.7133 33.9657 11.0133 33.6657C10.4133 33.6657 10.3133 34.2657 10.0133 34.5657ZM11.4133 35.4657C11.8133 34.6657 13.3133 34.8657 13.5133 33.7657C12.2133 33.6657 11.6133 34.9657 11.4133 35.4657ZM57.9133 37.4657C59.1133 36.5657 60.4133 35.8657 61.3133 34.6657C59.8133 35.2657 58.6133 36.1657 57.9133 37.4657ZM59.4133 38.0657C60.8133 37.5657 61.6133 36.5657 62.7133 35.7657C61.3133 36.2657 60.4133 37.2657 59.4133 38.0657ZM12.0133 36.4657C10.0133 38.5657 7.61328 40.3657 6.21328 43.0657C8.61328 41.3657 10.1133 38.3657 12.8133 37.0657C13.0133 36.9657 13.4133 37.2657 13.4133 36.7657C12.8133 36.4657 12.6133 36.8657 12.0133 36.4657ZM9.11328 37.4657C9.41328 37.4657 10.0133 37.0657 9.71328 36.7657C9.41328 36.9657 8.91328 36.9657 9.11328 37.4657ZM66.4133 38.8657C66.3133 38.4657 66.5133 38.3657 66.5133 38.0657C66.4133 38.0657 66.3133 38.0657 66.2133 38.0657C66.1133 38.4657 66.2133 38.7657 66.4133 38.8657ZM10.6133 40.3657C11.1133 40.2657 11.4133 40.0657 11.6133 39.6657C11.3133 39.5657 10.9133 40.1657 10.6133 40.3657ZM62.8133 40.2657C63.0133 40.4657 63.3133 40.2657 63.4133 40.0657C63.1133 39.7657 62.9133 40.0657 62.8133 40.2657ZM66.3133 41.8657C66.2133 41.4657 66.7133 40.9657 66.2133 40.9657C66.0133 41.2657 66.0133 41.6657 66.3133 41.8657ZM8.91329 42.3657C9.21329 41.8657 9.91329 41.7657 9.91329 41.0657C9.41329 41.1657 8.91329 42.0657 8.91329 42.3657ZM44.1133 43.9657C45.2133 43.3657 46.7133 43.3657 47.6133 42.7657C45.9133 42.7657 44.4133 42.7657 44.1133 43.9657ZM22.5133 43.0657C22.5133 43.2657 22.6133 43.3657 22.6133 43.3657C23.0133 43.4657 23.1133 43.2657 23.2133 43.0657C23.0133 43.0657 22.8133 42.8657 22.5133 43.0657ZM42.2133 43.1657C42.4133 43.3657 43.0133 43.3657 43.0133 43.0657C42.9133 42.8657 42.2133 42.8657 42.2133 43.1657ZM19.5133 43.7657C19.7133 43.4657 20.2133 43.5657 20.2133 43.0657C19.7133 43.0657 19.1133 43.0657 18.6133 43.0657C18.7133 43.4657 19.3133 43.4657 19.5133 43.7657ZM51.6133 44.0657C51.9133 44.2657 52.4133 44.3657 52.8133 44.1657C52.9133 43.1657 51.8133 43.5657 51.6133 44.0657ZM6.5133 45.1657C6.9133 44.7657 7.6133 44.1657 7.5133 43.6657C7.2133 44.0657 6.5133 44.7657 6.5133 45.1657ZM42.3133 44.9657C42.9133 44.7657 43.6133 44.5657 43.8133 44.0657C43.2133 44.1657 42.6133 44.4657 42.3133 44.9657ZM27.3133 44.9657C27.7133 44.6657 28.3133 44.6657 28.3133 44.1657C27.7133 44.0657 27.4133 44.8657 27.3133 44.9657ZM24.9133 46.5657C25.8133 46.2657 26.6133 45.7657 27.1133 45.0657C25.8133 45.0657 25.5133 45.9657 24.9133 46.5657ZM51.0133 46.7657C52.6133 46.5657 54.0133 46.0657 55.0133 45.5657C53.5133 45.8657 51.8133 45.8657 51.0133 46.7657ZM17.1133 46.5657C16.3133 46.9657 15.6133 47.4657 14.4133 47.4657C11.5133 50.0657 8.51329 52.4657 6.41329 55.7657C9.91329 52.6657 13.0133 49.0657 17.3133 46.7657C17.3133 46.6657 17.3133 46.4657 17.1133 46.5657ZM7.41329 52.1657C8.91329 50.9657 10.2133 49.7657 11.5133 48.3657C12.0133 48.1657 12.9133 47.6657 12.5133 46.8657C10.7133 48.4657 8.81329 49.9657 7.41329 52.1657ZM18.6133 47.4657C19.0133 47.4657 19.4133 47.2657 19.4133 46.8657C19.0133 46.9657 18.6133 47.0657 18.6133 47.4657ZM16.6133 48.8657C17.0133 48.9657 17.5133 49.2657 18.0133 48.9657C18.0133 48.4657 18.0133 48.0657 18.2133 47.7657C17.6133 48.0657 16.8133 48.1657 16.6133 48.8657ZM21.7133 47.9657C21.8133 48.5657 23.0133 48.3657 23.2133 47.8657C22.8133 48.3657 22.2133 47.6657 21.7133 47.9657ZM65.1133 49.4657C65.8133 49.8657 65.9133 48.9657 65.4133 48.6657C65.3133 48.8657 65.1133 48.9657 65.1133 49.4657ZM65.2133 50.8657C64.3133 52.1657 62.8133 52.9657 61.9133 54.3657C63.3133 53.5657 64.4133 52.4657 65.5133 51.4657C65.5133 51.2657 65.5133 51.0657 65.5133 50.8657C65.5133 50.8657 65.3133 50.8657 65.2133 50.8657ZM12.2133 52.3657C12.5133 52.1657 12.6133 51.9657 12.8133 51.6657C12.4133 51.5657 11.9133 52.0657 12.2133 52.3657ZM11.2133 55.6657C12.2133 55.0657 13.2133 53.5657 14.2133 52.6657C14.2133 52.4657 14.1133 52.3657 14.0133 52.3657C13.1133 53.4657 11.7133 54.0657 11.2133 55.6657ZM8.0133 56.4657C8.2133 56.4657 8.51328 56.4657 8.71328 56.4657C9.41328 55.1657 10.8133 54.0657 11.3133 52.9657C10.1133 54.0657 8.7133 54.8657 8.0133 56.4657ZM65.2133 56.9657C66.2133 57.1657 66.1133 55.1657 65.7133 54.9657C65.6133 55.5657 65.0133 56.2657 65.2133 56.9657Z" fill="#232178"/>
</svg>

<svg width="72" height="71" fill="none" xmlns="http://www.w3.org/2000/svg"><path fill-rule="evenodd" clip-rule="evenodd" d="M26.313 21.966c.4 1.9 1.3 3.4 1.5 5.8.3.3 1-.3 1.4 0 0 .8-1 .5-1.2 1.2.3.9.7 2 .9 3.6.3 1.9.7 3.5 0 4.4-.4 0-.7-.3-.9-.5.1-2.3-.9-4.5-1.2-6.9-1.5.1-1.9 1.2-3.4 1.3-.2 2.1-1.1 4.5-.5 6.6-.2.4-.5.7-.9.8-.8-.5-.7-1.8-.6-2.6.2-1.7.8-3.5 1-5 .1-.4-.2-.3-.1-.7 1.4-2.4 1.8-5.8 3.3-8.1.3.1.5.1.7.1zm-2.2 7.1c.7.1 1.6-.4 2.3-.7-.1-1.3-.3-2.6-1-3.3-.3 1.5-1.1 2.6-1.3 4zm14.5-3.3c.1 2.2-1.6 2.6-3.3 3 .9.9 2.1 1.7 3.4 2.3-.5 2.3-2.7 3.4-5.4 3.3-.5 0-.3.7-.7.8-.6-.4-1.5-.5-1.7-1.3.1-.4.8-.2.9-.6-.4-3-.1-6 .2-9-.5-.4-1.5-.5-1-1.5.5-.4 1.4.1 1.9-.5 1.5 1.6 3.9 2.3 5.7 3.5zm-5.7 2.4c1.5-.4 3-.7 4.2-1.4-1-1-2.4-1.5-3.8-2.1-.3 1.1-.5 2.1-.4 3.5zm.2 5.2c1.4-.4 3.2-.4 3.6-1.7-1.3-.8-2.3-1.9-3.7-2.7.1 1.5-.2 3.2.1 4.4zm15.7-7.8c-1.2.4-1.6-.7-2.6-.7-3.1 0-4 6.9-1.6 8.6 1.1.8 2.7.1 3.5-.6.2-.2.4-.7.8-.6.8.2-.2.7-.3 1-.9 1.2-1.8 2.1-3.7 1.9-4.8-.7-3.5-12.8 2.1-11.7.7.2 2.1 1.1 1.8 2.1zm-.6 32.3c-.5-.1-.5.2-.9.2-2.6 1.7-5.7 3-8.4 4.5-1.3 1.9-3.2-.2-2.7-2.3.5-.5 1.4-.2 1.6.3.2-.3.2-.7.3-.9 2.7-2 6.3-3.7 9.1-5.2 1.3.7 1.7 2 1 3.4z" fill="#232178"/><path fill-rule="evenodd" clip-rule="evenodd" d="M66.913 58.566c-2.8-.1-6.7.9-9.1-.6 0-2.5-.5-4.5-.8-6.7-1 0-1.4-.5-1.7-1.2-4.8.3-9.4.4-14 .3-8.2 0-16.5 1.3-25.1.1-.5 2.2-.3 5-1.2 6.7-2.8.8-6.9 1.3-10 .5-.4-2.7-.8-5.3-.7-7.6.1-1.2-.4-2.5-.3-3.7.1-3.1.3-6.7.6-9.8.3-3.2-.1-7.4.2-10.6.1-1.3.5-2.4-.3-3.3 1-1.1.9-4 .3-5.5 1.1-2.1.7-5.8 1.9-7.9 1.1-.3.9.8 1.4 1.2 1-.4-.2-1.2.2-1.9 6-.7 11.6-.4 17.9-.7 3.9-.2 8.1-.4 12.4-.5.7 0 1.4.2 2 .1.3 0 .7-.3 1-.3 1.4-.2 3.2-.2 4.7-.1 3.6.1 7.7.5 11.3 0 2.2 1.2 5.3-.6 8 .6 1.6.7 2.3 5.5 2.2 7.9 0 .3-.2.7-.2.9 0 .4.3 1.4.3 1.7 0 1.2-.2 2.9-.1 4.4.1 3.7.2 8.1.1 11.3-.2 5.2-.3 10.3-.3 15.2-.1 3.5.1 7.1-.7 9.5zm-16.7-48.5c-1.2 1.7-3.8 2.7-4.4 4.7 1.2 0 2.7.2 2.8-.8-.6.1-.8.4-1.3.6.4-1.5 2.1-2.6 3.1-3.7.8-.4 1.6-1 2.2-1.6-.8-.4-1.4.7-2.4.8zm14-.5c.2-.1.7.2.6-.2h-.6v.2zm-26.4.3c-1.7 1.8-4.1 2.9-5.6 4.9 2.8-1.3 4.8-3.5 7.1-5.3-.5.1-.9.4-1.5.4zm-26.3 0c.5.1.4.7.6 1 .6-.2 1.3-.3 1.3-1.2-.7 0-1.3 0-1.9.2zm2.1 2.1c.7.2 1.5-.4 1.9-.9.6-.4 1.5-.4 1.7-1.2-1.7.2-2.8 1.1-3.6 2.1zm17.1-1.6c0-.1 0-.3-.2-.2-1.3.6-2 1.7-3 2.6 1.3-.6 2.1-1.6 3.2-2.4zm-8.8 4.4c1.1-.7 2.1-1.4 3-2.2.8-.7 1.8-1.5 1.6-2-1.7 1.3-3.4 2.6-4.6 4.2zm14.4.1c1 .2 1-.6 1.3-1 1.6-.6 2.5-1.9 3.6-3-2.1.9-3.5 2.5-4.9 4zm19.9-1c1.2-.9 2.3-1.9 3.3-3-1.7.5-2.4 1.9-3.3 3zm.4 1.9c1.9-1.1 2.8-3.1 4.7-4.2 0-.1 0-.3-.2-.2-1.7 1.2-3.7 2.7-4.5 4.4zm-4-3.8c-.9.7-2.1 1.6-2.7 2.8.2 0 1.1.3 1.5 0-.9-1.2 1-2.2 1.6-3-.3-.3-.2.1-.4.2zm.8 2.8c.6-.4 1.9-1.3 1.5-1.9-.4.8-1.2 1.2-1.5 1.9zm-12.4-.1c.7.3 1.3-.6.7-.8-.1.4-.7.3-.7.8zm-2.1.2c.4 0 .9.1 1.2-.1 0-1.1-1.2-.8-1.2.1zm16.4.2c.2-.4.8-.4.8-1-.4 0-1 .6-.8 1zm-27.9 0c.2.2.5.1.7-.1-.1-.2-.7-.3-.7.1zm38.9.9c.3-.3-.1-.7 0-1.2h-.3c-.3.3-.2 1.2.3 1.2zm-8.9 1.3c.8-.4 1.2-1.1 1.7-1.7-.8.2-1.2.9-1.7 1.7zm-41.2-1.2c.5 8.4-1 17.1-.3 25.4 11.7 0 26.2.3 38-.6.5-.7 1.6-.9 1.9-1.9-2.1.1-.6-1.6 0-2.1.1-3.4.2-7.2 0-10.5 0-.8.2-1.6.2-2.3 0-1-.7-2 0-2.7-.2-.3-.7-.3-.8-.8 1-.6.6-2.4 0-3.3-5.7-1.1-11.8-1.1-18.1-.8-4.3.2-8.8.1-12.9 0-2.3-.1-5.1-.6-6.6.1-.2-.9-.8-.9-1.4-.5zm49.8 1.8c.1-.3-.1-.7 0-1.3-.7-.4-1 1.3 0 1.3zm-6.9 1.1c.9-.3 1.5-.9 2.1-1.5.3-.1.8-.1.7-.6-1.2.5-2 1.3-2.8 2.1zm7.1 1.8c-.1-.7.2-1.4-.2-1.6-.1.4-.2 1.3.2 1.6zm-52 .9c.5 0 .4-1.1.2-1.4-.4.4 0 .9-.2 1.4zm-6.5 3c1.1-.9 2.2-1.8 2.9-3-1.5 0-2 2-2.9 3zm54.5 2.7c-.6.9-1.8 1.3-2.4 2.2 1.9-1.1 3.5-2.3 5.3-3.5-1.4-.4-1.7 1.1-2.9 1.3zm-55.7 1.2c.6.2.7-.9.1-.8-.1.1-.1.4-.1.8zm7.2-.4c-.5.5-1.5.6-1.6 1.5.4-.3 1-.7 1.7-.3.1-.2.4-1.2-.1-1.2zm45.5 2.1c.1-.2.4-.2.5-.5-.4-.1-.8.3-.5.5zm-1.4.8c.3.2.8-.1.8-.5-.3.1-.7.2-.8.5zm-46 1.8c.8 0 .9-.8 1.7-.8 0-.3.1-.8-.2-.8-.3.6-1.3.7-1.5 1.6zm51.8.5c.7-.1 2.3-.9 1.3-1.5-.4.6-1 .9-1.3 1.5zm2.9.3c-.1-.4.3-1.3-.2-1.4 0 .5-.1 1.1.2 1.4zm-56.5.9c.6-.1.7-.6 1-.9-.6 0-.7.6-1 .9zm1.4.9c.4-.8 1.9-.6 2.1-1.7-1.3-.1-1.9 1.2-2.1 1.7zm46.5 2c1.2-.9 2.5-1.6 3.4-2.8-1.5.6-2.7 1.5-3.4 2.8zm1.5.6c1.4-.5 2.2-1.5 3.3-2.3-1.4.5-2.3 1.5-3.3 2.3zm-47.4-1.6c-2 2.1-4.4 3.9-5.8 6.6 2.4-1.7 3.9-4.7 6.6-6 .2-.1.6.2.6-.3-.6-.3-.8.1-1.4-.3zm-2.9 1c.3 0 .9-.4.6-.7-.3.2-.8.2-.6.7zm57.3 1.4c-.1-.4.1-.5.1-.8h-.3c-.1.4 0 .7.2.8zm-55.8 1.5c.5-.1.8-.3 1-.7-.3-.1-.7.5-1 .7zm52.2-.1c.2.2.5 0 .6-.2-.3-.3-.5 0-.6.2zm3.5 1.6c-.1-.4.4-.9-.1-.9-.2.3-.2.7.1.9zm-57.4.5c.3-.5 1-.6 1-1.3-.5.1-1 1-1 1.3zm35.2 1.6c1.1-.6 2.6-.6 3.5-1.2-1.7 0-3.2 0-3.5 1.2zm-21.6-.9c0 .2.1.3.1.3.4.1.5-.1.6-.3-.2 0-.4-.2-.7 0zm19.7.1c.2.2.8.2.8-.1-.1-.2-.8-.2-.8.1zm-22.7.6c.2-.3.7-.2.7-.7h-1.6c.1.4.7.4.9.7zm32.1.3c.3.2.8.3 1.2.1.1-1-1-.6-1.2-.1zm-45.1 1.1c.4-.4 1.1-1 1-1.5-.3.4-1 1.1-1 1.5zm35.8-.2c.6-.2 1.3-.4 1.5-.9-.6.1-1.2.4-1.5.9zm-15 0c.4-.3 1-.3 1-.8-.6-.1-.9.7-1 .8zm-2.4 1.6c.9-.3 1.7-.8 2.2-1.5-1.3 0-1.6.9-2.2 1.5zm26.1.2c1.6-.2 3-.7 4-1.2-1.5.3-3.2.3-4 1.2zm-33.9-.2c-.8.4-1.5.9-2.7.9-2.9 2.6-5.9 5-8 8.3 3.5-3.1 6.6-6.7 10.9-9 0-.1 0-.3-.2-.2zm-9.7 5.6c1.5-1.2 2.8-2.4 4.1-3.8.5-.2 1.4-.7 1-1.5-1.8 1.6-3.7 3.1-5.1 5.3zm11.2-4.7c.4 0 .8-.2.8-.6-.4.1-.8.2-.8.6zm-2 1.4c.4.1.9.4 1.4.1 0-.5 0-.9.2-1.2-.6.3-1.4.4-1.6 1.1zm5.1-.9c.1.6 1.3.4 1.5-.1-.4.5-1-.2-1.5.1zm43.4 1.5c.7.4.8-.5.3-.8-.1.2-.3.3-.3.8zm.1 1.4c-.9 1.3-2.4 2.1-3.3 3.5 1.4-.8 2.5-1.9 3.6-2.9v-.6h-.3zm-53 1.5c.3-.2.4-.4.6-.7-.4-.1-.9.4-.6.7zm-1 3.3c1-.6 2-2.1 3-3 0-.2-.1-.3-.2-.3-.9 1.1-2.3 1.7-2.8 3.3zm-3.2.8h.7c.7-1.3 2.1-2.4 2.6-3.5-1.2 1.1-2.6 1.9-3.3 3.5zm57.2.5c1 .2.9-1.8.5-2-.1.6-.7 1.3-.5 2z" fill="#232178"/></svg>
